X:1
T:We Shall Meet, By and By
T:We Shall Meet, By and By
T:Hubert Platt Main
T:John Atkinson, 1867
T:Public Domain Courtesy of the Cyber Hymnal™
T:Public Domain Courtesy of the Cyber Hymnal™
C:Hubert Platt Main
Z:Public Domain
Z:Courtesy of the Cyber Hymnal™
%%score ( 1 2 ) ( 3 4 )
L:1/8
Q:1/4=100
M:3/4
K:Ab
V:1 treble 
V:2 treble 
V:3 bass 
V:4 bass 
V:1
 [CE][CA] | [CA]3 [DG] [EA][Ec] | [Ec]2 [EB]2 [Ec]>[Ed] | ([Ae]2 [Ec]) z [EA]>[EB] | %4
w: 1.~We shall|meet be- yond the|riv- er, By and|by, * by and|
w: 2.~We shall|strike the harps of|glo- ry, By and|by, * by and|
w: 3.~We shall|see and be like|Je- sus, By and|by, * by and|
w: 4.~There our|tears shall all cease|flow- ing, By and|by, * by and|
 [EA]4 [CE][CA] | [CA]3 [DG] [EA][Ec] | [Ec]2 [EB]2 [Ec]>[Ed] | ([Ae]2 [Ec]) z [EA]>[EB] | %8
w: by; And the|dark- ness shall be|o- ver, By and|by, * by and|
w: by; We shall|sing re- demp- tion’s|sto- ry, By and|by, * by and|
w: by; Who a|crown of life will|give us, By and|by, * by and|
w: by; And with|sweet- est rap- ture|know- ing, By and|by, * by and|
 [EA]4 [DG][CA] | [EB]2 [EB]2 [EA][Ec] | [EB]4 [EB][Ec] | [EB][EG] [=DF]2 [DG]2 | E4 EE | %13
w: by; With the|toil- some jour- ney|done, And the|glor- ious bat- tle|won, We shall|
w: by; And the|strains for- ev- er-|more Shall re-|sound in sweet- ness|o’er Yon- der|
w: by; And the|an- gels who ful-|fill All the|man- dates of His|will Shall at-|
w: by; All the|blest ones, who have|gone To the|land of life and|song— We with|
 [EA]2 [CA]2 [CA][EB] | [Ec]4 [Ec]>[Ed] | ([Ae]2 [Ec]) z [EA]>[EB] | [EA]4 |] %17
w: shine forth as the|sun, By and|by, * by and|by.|
w: ev- er- last- ing|shore, By and|by, * by and|by.|
w: tend, and love us|still, By and|by, * by and|by.|
w: shout- ings shall re-|join, By and|by, * by and|by.|
V:2
 x2 | x6 | x6 | x6 | x6 | x6 | x6 | x6 | x6 | x6 | x6 | x6 | E4 EE | x6 | x6 | x6 | x4 |] %17
V:3
 [A,,A,][A,,E,] | [A,,E,]3 [B,,E,] [C,A,][A,,A,] | [E,A,]2 [E,G,]2 A,>[A,B,] | %3
 (C2 A,) z [E,C]>[E,D] | [A,,C]4 [A,,A,][A,,E,] | [A,,E,]3 [B,,E,] [C,A,][A,,A,] | %6
 [E,A,]2 [E,G,]2 A,>[A,B,] | (C2 A,) z [E,C]>[E,D] | [A,,C]4 [E,B,][E,A,] | %9
 [E,G,]2 [D,G,]2 [C,A,][A,,A,] | [E,G,]4 [E,G,][E,A,] | [E,G,][E,B,] [B,,A,]2 [B,,B,]2 | %12
 [E,G,]4 [E,G,][D,B,] | [C,A,]2 [A,,A,]2 [F,A,][E,G,] | A,4 A,>[A,B,] | (C2 A,) z [E,C]>[E,D] | %16
 [A,,C]4 |] %17
V:4
 x2 | x6 | x4 A,3/2 x/ | A,3 x3 | x6 | x6 | x4 A,3/2 x/ | A,3 x3 | x6 | x6 | x6 | x6 | x6 | x6 | %14
 A,4 A,3/2 x/ | A,3 x3 | x4 |] %17

